src/asset/img/member/male/male.svg

<?xml version="1.0" encoding="UTF-8" standalone="no"?>
<!-- Created with Inkscape (http://www.inkscape.org/) -->

<svg
   version="1.1"
   id="svg4603"
   width="4.2093744"
   height="4.4018583"
   viewBox="0 0 4.2093744 4.4018583"
   sodipodi:docname="male.svg"
   inkscape:version="1.1.1 (3bf5ae0d25, 2021-09-20, custom)"
   xmlns:inkscape="http://www.inkscape.org/namespaces/inkscape"
   xmlns:sodipodi="http://sodipodi.sourceforge.net/DTD/sodipodi-0.dtd"
   xmlns="http://www.w3.org/2000/svg"
   xmlns:svg="http://www.w3.org/2000/svg">
  <defs
     id="defs4607" />
  <sodipodi:namedview
     id="namedview4605"
     pagecolor="#505050"
     bordercolor="#eeeeee"
     borderopacity="1"
     inkscape:pageshadow="0"
     inkscape:pageopacity="0"
     inkscape:pagecheckerboard="0"
     showgrid="false"
     inkscape:current-layer="g14110" />
  <g
     inkscape:groupmode="layer"
     inkscape:label="Image"
     id="g4609"
     transform="translate(-2.7026888,-3.8400002)">
    <g
       id="g14110">
      <path
         style="fill:#1093d8;stroke-width:0.192"
         d="M 3.0057578,7.520882 C 2.5737576,7.0435274 2.6063333,6.2996086 3.0859355,5.6898932 c 0,0 0.285022,-0.3062277 0.4780116,-0.3999622 C 3.8386909,5.1564888 4.400178,5.1840002 4.400178,5.1840002 H 5.316485 L 5.6342425,4.8328819 C 6.0686483,4.352869 6.0343101,4.2240002 5.4720002,4.2240002 c -0.264,0 -0.48,-0.0864 -0.48,-0.192 v -0.192 h 0.96 0.9600001 v 0.288 c 0,0.1584 -0.1133518,0.288 -0.2518929,0.288 -0.1385409,0 -0.4601883,0.2808 -0.7147719,0.624 -0.4879102,0.6577438 -0.4174343,0.7937362 -0.3783214,1.1040001 0.032532,0.2580626 -0.025022,0.8341691 -0.4429847,1.296 l -0.3909658,0.432 H 4.0282896 3.3235153 Z M 4.8328819,7.3622426 C 5.0259971,7.1874759 5.1840002,6.8481468 5.1840002,6.6081781 V 6.171871 c 0,0 -0.1818045,-0.4071841 -0.3495492,-0.5413465 C 4.6583785,5.4897016 4.4249433,5.3995364 4.199492,5.3974566 4.0852952,5.3964031 3.875746,5.5095579 3.875746,5.5095579 3.6976857,5.5712135 3.4517341,5.7451227 3.3291866,5.8960226 c 0,0 -0.096088,0.2231608 -0.1196547,0.3385938 C 3.1680993,6.4375592 3.2776786,6.767694 3.2776786,6.767694 3.54575,7.7024048 4.186383,7.9473164 4.8328819,7.3622426 Z"
         id="path14116"
         sodipodi:nodetypes="sssccssscccssssscccssscsssssss" />
      <path
         style="fill:#007fc1;stroke-width:0.192"
         d="m 3.6480002,8.0640003 -0.3244849,-0.192 0.7296771,-0.019731 c 0,0 0.4475657,0.0327 0.6554543,-0.057765 C 4.8846262,7.717924 5.113096,7.4394796 5.113096,7.4394796 5.3264104,7.1967031 5.5098496,6.8204813 5.5347755,6.6046236 l 0.031717,-0.4537927 0.1712349,0.5359388 c 0,0 -0.033065,0.2815106 -0.086678,0.4206466 C 5.555923,7.3542896 5.1987689,7.6947697 5.1987689,7.6947697 4.6192965,8.2742425 4.1472434,8.386636 3.6480002,8.0640003 Z m 2.9556285,-2.976 -0.2103326,-0.672 h 0.2593521 l 0.2559215,-0.2049369 0.00343,0.8769369 c 0.00145,0.3695972 -0.022059,0.672 -0.049019,0.672 -0.026961,0 -0.143669,-0.3024 -0.259352,-0.672 z"
         id="path14114"
         sodipodi:nodetypes="sccsssccsssscccsss" />
    </g>
  </g>
</svg>

<svg width="4.209" height="4.402" xmlns="http://www.w3.org/2000/svg"><path style="fill:#1093d8;stroke-width:.192" d="M3.006 7.52c-.432-.476-.4-1.22.08-1.83 0 0 .285-.306.478-.4.275-.134.836-.106.836-.106h.916l.318-.351c.435-.48.4-.609-.162-.609-.264 0-.48-.086-.48-.192V3.84h1.92v.288c0 .158-.113.288-.252.288-.138 0-.46.28-.715.624-.488.658-.417.794-.378 1.104.033.258-.025.834-.443 1.296l-.39.432h-1.41Zm1.827-.158c.193-.175.351-.514.351-.754v-.436s-.182-.407-.35-.541a1.063 1.063 0 0 0-.635-.234c-.114 0-.323.113-.323.113a1.443 1.443 0 0 0-.547.386s-.096.223-.12.339c-.04.203.069.533.069.533.268.934.908 1.18 1.555.594Z" transform="translate(-2.703 -3.84)"/><path style="fill:#007fc1;stroke-width:.192" d="m3.648 8.064-.324-.192.73-.02s.447.033.655-.057c.176-.077.404-.356.404-.356.213-.242.397-.619.422-.834l.031-.454.172.536s-.033.281-.087.42c-.095.247-.452.588-.452.588-.58.58-1.052.692-1.551.369Zm2.956-2.976-.21-.672h.259l.256-.205.003.877c.001.37-.022.672-.049.672-.027 0-.144-.302-.26-.672z" transform="translate(-2.703 -3.84)"/></svg>
